X:1
T:Sleep! Holy Babe
T:John Bacchus Dykes
T:Sleep! Holy Babe
T:Public Domain
T:Public Domain
T:Public Domain
C:John Bacchus Dykes
Z:Public Domain
%%score ( 1 2 ) ( 3 4 )
L:1/8
M:none
K:Eb
V:1 treble 
V:2 treble 
V:3 bass 
V:4 bass 
V:1
 (E2 G2 B2 c2 c4 F4) | (D2 F2 A2 B2 B4 E4) | z6 ([C_DA]2 [CDA]2 [DGB]2 [=EA]2 [A,_CE]2 | %3
w: ~ * * * * *|~ * * * * *|1.~Sleep! * * * *|
w: ~ * * * * *|~ * * * * *|2.~Sleep! * * * *|
w: ~ * * * * *|~ * * * * *|3.~Sleep! * * * *|
w: ~ * * * * *|~ * * * * *|4.~Sleep! * * * *|
 [G,B,E]2) z6 z8 | (E4 D4) z8 || [B,E]8 [CE]6 [EA]2 | E8 (z4 e4) x4 | [Ae]4 (d2 c2) G4 (z2 A2) x2 | %8
w: |Ho- *|Babe! up- on|Thy *|breast; Great * Lord *|
w: |Ho- *|Babe! Thine an-|gels *|round, All * bend- *|
w: |Ho- *|Babe! while I|with *|gaze In * joy *|
w: |Ho- *|Babe! ah! take|Thy *|pose; Too * quick- *|
 [FG]12 | [FG]4 | [FG]6 [FG]2 [F=A]4 [F=B]4 | [Fd]6 [FG]2 [FG]4 [FG]4 | %12
w: |sea|and sky, How sweet|it is to see|
w: |fold-|ed wings, Be- fore|th’in- car- nate King|
w: |face|a- while, Up- on|the lov- ing in-|
w: |slum-|bers break, And Thou|to length- ened pains|
 G4 (z2 G2) [Ge]4 ([Fd]2 [Ec]2) | [Ec]6 [DB]2 [DB]4 | [DB]4 | (E2 B,4) [CE]2 [DE]4 (C2 B,2) | %16
w: Thee * lie In *|* place of|rest,|In * such a place *|
w: of * kings, In *|* awe pro-|found.|In * rever- ent awe *|
w: fant * smile Which *|* vine- ly|plays.|Which * there di- vine- *|
w: a- * wake That *|* lone shall|close,|That * death a- lone *|
 (C8 E4) | (D2 C2) | (E2 G2) (B2 c2) (E2 D2 C2) [B,D]2 | (B,2 E2 D2 C2 [B,E]8) [B,_DE]4 | %20
w: ||||
w: ||||
w: ||||
w: ||||
 [A,CE]8 [A,_CE]8 | [G,B,E]8 z8 |] %22
w: ||
w: ||
w: ||
w: ||
V:2
 x8 E8 | x8 _D8 | x16 | x16 | A,8 x8 || x16 | G12 G8 | x4 A4 B6 F4 | x12 | x4 | x16 | x16 | %12
w: ~|~|||ly||mo- ther’s|of earth and|||||
w: ~|~|||ly||watch a-|ing low with|||||
w: ~|~|||ly||Ma- ry|up- on that|||||
w: ~|~|||ly||brief re-|ly will Thy|||||
 E6 e4 x6 | x12 | x4 | B6 x4 E4 x2 | E12 | E4 | B,4 E4 B6 x2 | E8- x12 | x16 | x16 |] %22
w: such a|||of rest,|||||||
w: rever- ent|||pro- found.|||||||
w: there di-|||ly plays.|||||||
w: death a-|||shall close.|||||||
V:3
 z8 [F,,=A,]8 | z8 [E,,G,]8 | (A,,2 C,2 E,2 F,2 F,2 G,2 A,2 A,,2 | [B,,E,]2 G,2 B,2 C6 B,4- | %4
 [B,,B,-]8 B,8) || [E,G,]8 [E,A,]6 [E,C]2 | E,8 (z4 =B,4) x4 | [A,,C]4 (D2 E2) [B,,E]4 [B,D]4 x2 | %8
 [=B,D]12 | [=B,D]4 | [G,=B,]6 [G,B,]2 [G,C]4 [G,,D]4 | [G,,=B,]6 [G,,B,]2 [=A,,C]4 [=B,,D]4 | %12
 (C2 D2) (C2 B,2) (=A,2 F,3) (z [F,A,]2) | [F,=A,]6 [B,,B,]2 [B,,B,]4 | (D2 C2) | %15
 [G,,B,]6 [G,,B,]2 [G,,B,]4 [G,,E,]4 | [A,,E,]12 | (F,2 ^F,2) | %18
 [B,,G,]4 [B,,G,]4 [B,,A,]4 [B,,A,]4 | (G,2 C2 B,2 A,2 [E,G,]8) E,,4 | A,,2 C,2 E,2 F,2 F,4 E,4 | %21
 [E,,E,]8 z8 |] %22
V:4
 x16 | x16 | x16 | x16 | x16 || x16 | =B,12 E,8 | x4 A,,4 x10 | x12 | x4 | x16 | x16 | %12
 C,4 C,4 F,4 G,2 x2 | x12 | A,,4 | x16 | x12 | =A,,4 | x16 | E,8 x12 | x8 A,,8 | x16 |] %22

